!!!COM: Music21
!!!OTL: Alalá
!!!OMV: pezas_alalas_alala-31_alala-letra.musicxml
**kern
*I"Voz
*I'Vo.
*clefG2
*k[b-]
*M2/4
*MM90
=1
!LO:TX:a:t=[quarter]=90
4r
8fL
8aJ
=||
8ccL
8ccJ
8ccL
8ccJ
=
8ccL
8aJ
8b-L
8ccJ
=
8dd-XL
8ccJ
8dd-L
8ee-XJ
=
4dd-X
[4cc
=
4cc]
8fL
8aJ
=||
8ccL
8ccJ
8ccL
8ccJ
!!linebreak:original
=
8ccL
8aJ
8b-L
8ccJ
=
8dd-XL
8ccJ
8dd-L
8ee-XJ
=
4dd-X
[4cc
=
4cc]
8aL
8ccJ
!!linebreak:original
=||
8.ccL
16ccJk
8ccL
8ddJ
=
24ccLL
24dd
24ccJ
8b-J
8gL
8b-J
=
8b-L
8aJ
8gL
8aJ
=
4g
[4g
=
4g~]
8aL
8ccJ
!!linebreak:original
=||
8.ccL
16ccJk
8ccL
8ddJ
=
24ccLL
24dd
24ccJ
8b-J
8gL
8b-J
=
8b-L
8aJ
8gL
8aJ
=
4f
[4f
=
2f;]
==
*-
